X:10
T:Ronald Kennedy's Strathspey
R:strathsepy
D:Andrea Beaton, The Tap Session (turns 3 and 4)
O:traditional Cape Breton
H:Dave MacIsaac learned this traditional tune from home recordings of Ranald Kennedy and Mary "Hughie" MacDonald.
Although Dave supplied the first two turns in Allister MacGillivary's book The Cape Breton Fiddler (1981),
he now thinks of it as a 4 part structure hence the title and my  arrangement.
On her CD, Andrea plays turns 3 and 4 only, using the title New Year's Day.
The title New Years's Day usually belongs to another, old style strathspey (see Simon Fraser Collection etc.)
Z:Paul Stewart Cranford (P.S.C.), <http://www.cranfordpub.com>
L:1/8
M:C|
Q:288
K:Ador
B|A>Bc>d e2 (e/f/g)|d<GB>A A<GG>B|c>AB>G A/A/A g<a|g<eg>B A2 A:|
||f|g>ab<a a>ge<g|d<GB>A {D}G2 G>f|g>ab<a a>ge<g|d<Bg>B A2 (3(efg)|
a>fg>e f>de>c|B<gB>A G>AB<d|c>AB>G A/A/A e<a|g<eg>B A2 A||
|:B|A>Bc>B A2 B<A|G<ED<E G2 (3GGB|A>Bc>d e>dc<e|d<Bg>B A/A/A A:|
||z|a>ge<a g<e g2|e<dB>A G>AB<G|a>ge<a g<e g2|e>dB<G A2 (3AAe|
a>ge<a g<e g2|e<dB>A G>AB<G|c>AB<G A>GE>e|d<Bg>B A/A/A A|]

